X: 66
T:Grand Slam, the
M:4/4
L:1/8
R:Reel
K:A
AB|"A"c<E e>f ecBA|"D"a&gt;g fd "A"e2 fa|"A"c2 c&gt;B "F#m"Afec|"B7"B2 B&gt;c "E7"B2 ed|!
"A"c<E e>f ecBA|"D"a&gt;g fd "A"e2 A&gt;B|"A"ce"D"fa "A"c<E ?E7?d>B|"A"A2 "D"A&gt;B "A" A2 |!
||: cd|e&gt;A Ac eaga|"D"f&gt;e df "A"e2 fa|"A"c2 c&gt;B "F#m"Afec|"B7"B2 B&gt;c "E7"B2 cd|
!
"A"e&gt;A Ac eaga|"D"f&gt;e fg "D#dim"a2 AB|"A"ce"D"fa "A"c<E ?E7?d>B|"A"A2 A&gt;B A2:||!

